src/assets/redux.svg

<svg xmlns="http://www.w3.org/2000/svg" xmlns:xlink="http://www.w3.org/1999/xlink" viewBox="-20 -20 296 284" version="1.1" preserveAspectRatio="xMidYMid" class="mdl-js"><script xmlns="">window._wordtune_extension_installed = true;</script>
  <defs>
    <style>
      @keyframes redux-arc-ani {
        0% {
          stroke-dashoffset: 694;
        }
        50% {
          stroke-dashoffset: 0;
        }
        100% {
          stroke-dashoffset: -694;
        }
      }
      .redux-arc {
        animation: redux-arc-ani 5s linear infinite;
        stroke-dasharray: 694;
        stroke-width: 17px; 
        stroke-linecap="round";
        stroke: #764ABC;
        fill: none;
      }
    </style>
    <mask id="arc-mask">
      <path d="M177.380953,169.732752 C186.828305,168.755405 193.995262,160.610839 193.669491,150.83736 C193.34372,141.063881 185.199451,133.245097 175.426328,133.245097 L174.774787,133.245097 C164.675893,133.57088 156.857395,142.041229 157.183166,152.14049 C157.508937,157.02723 159.463561,161.262404 162.395498,164.194448 C151.319292,186.021884 134.379213,201.985233 108.969093,215.342321 C91.7032429,224.464235 73.7858511,227.722061 55.8684592,225.441583 C41.208775,223.486887 29.8067984,216.971234 22.6398417,206.220408 C12.2151773,190.257058 11.237865,172.990579 20.0336756,155.724099 C26.22332,143.344359 35.9964428,134.222445 42.1860873,129.661488 C40.8830043,125.426314 38.9283797,118.259096 37.9510674,113.046574 C-9.28569288,147.253751 -4.39913147,193.514885 9.934782,215.342321 C20.6852171,231.631453 42.5118581,241.730715 66.6188943,241.730715 C73.1343096,241.730715 79.6497248,241.079149 86.16514,239.450236 C127.863797,231.30567 159.463561,206.54619 177.380953,169.732752 Z" fill="white"/>
      <path d="M69.2250604,175.271057 C69.5508312,185.044536 77.6951002,192.86332 87.468223,192.86332 L88.1197645,192.86332 C98.2186581,192.537537 106.037156,184.067188 105.711386,173.967927 C105.385615,164.194448 97.2413458,156.375664 87.468223,156.375664 L86.8166815,156.375664 C86.16514,156.375664 85.1878277,156.375664 84.5362862,156.701447 C71.179685,134.548228 65.6415821,110.440313 67.5962066,84.3777023 C68.8992897,64.8307442 75.4147049,47.8900472 86.8166815,33.881394 C96.2640336,21.8274365 114.507196,15.9633491 126.886485,15.6375664 C161.418186,14.9860012 176.07787,57.9893089 177.055182,75.2557885 C181.290202,76.2331364 188.457159,78.5136149 193.34372,80.142528 C189.434471,27.3657413 156.857395,0 125.583402,0 C96.2640336,0 69.2250604,21.1758712 58.4746253,52.4510041 C43.4891703,94.1511813 53.2622932,134.222445 71.5054558,165.823361 C69.876602,168.103839 68.8992897,171.687448 69.2250604,175.271057 Z" fill="white"/>
      <path d="M234.716607,129.335706 C209.958029,100.341051 173.471704,84.3777023 131.773046,84.3777023 L126.560714,84.3777023 C123.628777,78.5136149 117.439133,74.6042233 110.597947,74.6042233 L109.946406,74.6042233 C99.8475119,74.9300059 92.0290137,83.4003544 92.3547844,93.499616 C92.6805552,103.273095 100.824824,111.091878 110.597947,111.091878 L111.249489,111.091878 C118.416445,110.766096 124.60609,106.205139 127.212256,100.015269 L133.07613,100.015269 C157.834707,100.015269 181.290202,107.182487 202.465302,121.19114 C218.75384,131.941967 230.481587,145.95062 236.997002,162.891317 C242.535105,176.574188 242.209334,189.931276 236.345461,201.333668 C227.223879,218.600148 211.912654,228.047844 191.714866,228.047844 C178.684036,228.047844 166.304747,224.138452 159.789332,221.206409 C156.205854,224.464235 149.690438,229.676757 145.129648,232.934584 C159.13779,239.450236 173.471704,243.033845 187.154076,243.033845 C218.428069,243.033845 241.557793,225.767366 250.353603,208.500886 C259.800955,189.605493 259.149414,157.02723 234.716607,129.335706 Z" fill="white"/>
    </mask>
  </defs>
  <g mask="url(#arc-mask)">
    <path class="redux-arc" d="M177.380953,169.732752 C186.828305,168.755405 193.995262,160.610839 193.669491,150.83736 C193.34372,141.063881 185.199451,133.245097 175.426328,133.245097 L174.774787,133.245097 C164.675893,133.57088 156.857395,142.041229 157.183166,152.14049 C157.508937,157.02723 159.463561,161.262404 162.395498,164.194448 C151.319292,186.021884 134.379213,201.985233 108.969093,215.342321 C91.7032429,224.464235 73.7858511,227.722061 55.8684592,225.441583 C41.208775,223.486887 29.8067984,216.971234 22.6398417,206.220408 C12.2151773,190.257058 11.237865,172.990579 20.0336756,155.724099 C26.22332,143.344359 35.9964428,134.222445 42.1860873,129.661488 C40.8830043,125.426314 38.9283797,118.259096 37.9510674,113.046574 C-9.28569288,147.253751 -4.39913147,193.514885 9.934782,215.342321 C20.6852171,231.631453 42.5118581,241.730715 66.6188943,241.730715 C73.1343096,241.730715 79.6497248,241.079149 86.16514,239.450236 C127.863797,231.30567 159.463561,206.54619 177.380953,169.732752 Z"/>
    <path class="redux-arc" d="M69.2250604,175.271057 C69.5508312,185.044536 77.6951002,192.86332 87.468223,192.86332 L88.1197645,192.86332 C98.2186581,192.537537 106.037156,184.067188 105.711386,173.967927 C105.385615,164.194448 97.2413458,156.375664 87.468223,156.375664 L86.8166815,156.375664 C86.16514,156.375664 85.1878277,156.375664 84.5362862,156.701447 C71.179685,134.548228 65.6415821,110.440313 67.5962066,84.3777023 C68.8992897,64.8307442 75.4147049,47.8900472 86.8166815,33.881394 C96.2640336,21.8274365 114.507196,15.9633491 126.886485,15.6375664 C161.418186,14.9860012 176.07787,57.9893089 177.055182,75.2557885 C181.290202,76.2331364 188.457159,78.5136149 193.34372,80.142528 C189.434471,27.3657413 156.857395,0 125.583402,0 C96.2640336,0 69.2250604,21.1758712 58.4746253,52.4510041 C43.4891703,94.1511813 53.2622932,134.222445 71.5054558,165.823361 C69.876602,168.103839 68.8992897,171.687448 69.2250604,175.271057 Z"/>
    <path class="redux-arc" d="M234.716607,129.335706 C209.958029,100.341051 173.471704,84.3777023 131.773046,84.3777023 L126.560714,84.3777023 C123.628777,78.5136149 117.439133,74.6042233 110.597947,74.6042233 L109.946406,74.6042233 C99.8475119,74.9300059 92.0290137,83.4003544 92.3547844,93.499616 C92.6805552,103.273095 100.824824,111.091878 110.597947,111.091878 L111.249489,111.091878 C118.416445,110.766096 124.60609,106.205139 127.212256,100.015269 L133.07613,100.015269 C157.834707,100.015269 181.290202,107.182487 202.465302,121.19114 C218.75384,131.941967 230.481587,145.95062 236.997002,162.891317 C242.535105,176.574188 242.209334,189.931276 236.345461,201.333668 C227.223879,218.600148 211.912654,228.047844 191.714866,228.047844 C178.684036,228.047844 166.304747,224.138452 159.789332,221.206409 C156.205854,224.464235 149.690438,229.676757 145.129648,232.934584 C159.13779,239.450236 173.471704,243.033845 187.154076,243.033845 C218.428069,243.033845 241.557793,225.767366 250.353603,208.500886 C259.800955,189.605493 259.149414,157.02723 234.716607,129.335706 Z"/>
    <circle cx="110.1" cy="92.5" r="18" stroke="#764ABC" fill="#764ABC"/>
    <circle cx="87.3" cy="175" r="18" stroke="#764ABC" fill="#764ABC"/>
    <circle cx="175.4" cy="151.1" r="18" stroke="#764ABC" fill="#764ABC"/>
  </g>
</svg>

<svg xmlns="http://www.w3.org/2000/svg" width="2500" height="2383" preserveAspectRatio="xMidYMid" viewBox="0 0 256 244" id="redux"><path fill="#764ABC" d="M177.381 169.733c9.447-.978 16.614-9.122 16.288-18.896-.325-9.773-8.47-17.592-18.243-17.592h-.651c-10.1.326-17.918 8.796-17.592 18.895.326 4.887 2.28 9.122 5.212 12.054-11.076 21.828-28.016 37.791-53.426 51.148-17.266 9.122-35.183 12.38-53.1 10.1-14.66-1.955-26.062-8.47-33.23-19.222-10.424-15.963-11.401-33.23-2.605-50.496 6.19-12.38 15.962-21.502 22.152-26.063-1.303-4.235-3.258-11.402-4.235-16.614-47.237 34.207-42.35 80.468-28.016 102.295 10.75 16.29 32.577 26.389 56.684 26.389 6.515 0 13.03-.652 19.546-2.28 41.699-8.145 73.299-32.905 91.216-69.718zm57.336-40.397c-24.759-28.995-61.245-44.958-102.944-44.958h-5.212c-2.932-5.864-9.122-9.774-15.963-9.774h-.652C99.848 74.93 92.03 83.4 92.355 93.5c.326 9.773 8.47 17.592 18.243 17.592h.651c7.167-.326 13.357-4.887 15.963-11.077h5.864c24.759 0 48.214 7.167 69.39 21.176 16.288 10.751 28.016 24.76 34.531 41.7 5.538 13.683 5.212 27.04-.652 38.443-9.121 17.266-24.432 26.714-44.63 26.714-13.031 0-25.41-3.91-31.926-6.842-3.583 3.258-10.099 8.47-14.66 11.729 14.009 6.515 28.343 10.099 42.025 10.099 31.274 0 54.404-17.267 63.2-34.533 9.447-18.896 8.795-51.474-15.637-79.165zM69.225 175.27c.326 9.774 8.47 17.592 18.243 17.592h.652c10.099-.325 17.917-8.796 17.591-18.895-.325-9.774-8.47-17.592-18.243-17.592h-.651c-.652 0-1.63 0-2.28.325-13.357-22.153-18.895-46.26-16.94-72.323 1.302-19.547 7.818-36.488 19.22-50.497 9.447-12.054 27.69-17.918 40.07-18.243 34.531-.652 49.19 42.351 50.168 59.618 4.235.977 11.402 3.258 16.289 4.887C189.434 27.366 156.857 0 125.584 0c-29.32 0-56.359 21.176-67.11 52.451-14.985 41.7-5.212 81.771 13.031 113.372-1.628 2.28-2.606 5.864-2.28 9.448z"></path></svg>
